X:50
%%etbk:tnset id:17,pos:2,rep:3
%%etbk:site1 http://www.thesession.org/tunes/display/7862
T: Mountain Lark, The
T: Brendan McMahon's
Z: Piano Box Version by Martin Fleischmann (www.boxplayer.ch)
M: 4/4
L: 1/8
R: reel
K: Edor
!3!F!1!E!2!E!1!E !3!F!2!E!1!D!2!E | !3!F!1!E !3!(3E!2!E!1!E !2!F!4!ABA | !2!F!1!E !3!(3E!2!E!1!E !4!F!3!E!2!D!1!B,|1 !3!D2!1!DE !3!F!4!ABA:|2 !3!D2!1!DE !3!F!5!A!1!A2 |
!2!B2!4!ee !5!feed | !2!B2!4!ee !3!d!2!B!1!A!3!d | !2!B!4!e!2!ee !3!fee!1!d | !2!BABc !4!dBA!4!d |
!2!B!4!e!2!ee !3!feed | !2!e!4!gfe !1!d4 | !5!f2!4!e!3!c !4!d!2!B!3!c!1!A | !2!BBBc !4!dcBA||


